modules/material-icons/icons/google-maps.svg

<svg xmlns="http://www.w3.org/2000/svg" width="24" height="24" viewBox="0 0 24 24"><path d="M18 1c2.76 0 5 2.24 5 5 0 2.5-5 8-4.75 11 0 .14-.11.25-.25.25s-.25-.11-.25-.25C18 14 13 8.5 13 6c0-2.76 2.24-5 5-5m0 3c-1.1 0-2 .9-2 2s.9 2 2 2 2-.9 2-2-.9-2-2-2M4 3h8.67c-.57.94-.9 2.05-.9 3.23 0 .98.63 2.35 1.48 3.88L2.03 21.34 2 21V5c0-1.1.9-2 2-2m12.53 12.87l-2.4-2.37.69-.71c.61 1.03 1.21 2.08 1.71 3.08M19.41 23H4.61L12 15.6l7.41 7.4M22 11.41V21l-.03.32-3.36-3.37c.62-1.98 2.1-4.35 3.39-6.54M6.69 12.5c-1.06 0-1.73-.5-1.73-1.18 0-.69.62-.92.84-1 .41-.13.95-.15 1.04-.15l.22.01c.75.53 1.07.77 1.07 1.27 0 .55-.58 1.05-1.44 1.05M5.53 6.8c0-.7.42-1.01.85-1.01.84 0 1.27 1.09 1.27 1.75 0 .81-.65.96-.91.96-.78 0-1.21-.96-1.21-1.7m2.42 2.89l-.34-.27c-.11-.09-.26-.21-.26-.42 0-.26.15-.43.31-.54.41-.32.81-.66.81-1.37 0-.65-.4-1.03-.64-1.24h.55l.4-.4H6.8c-1.38 0-2.08.86-2.08 1.82 0 .73.56 1.52 1.57 1.52h.25l-.11.41c0 .3.14.46.3.64-.45.02-1.27.13-1.88.5-.59.35-.73.84-.73 1.19 0 .73.66 1.42 2.08 1.42 1.7 0 2.54-.95 2.54-1.86 0-.68-.35-1.03-.79-1.4z"/></svg>

<?xml version="1.0" encoding="UTF-8"?><!DOCTYPE svg PUBLIC "-//W3C//DTD SVG 1.1//EN" "http://www.w3.org/Graphics/SVG/1.1/DTD/svg11.dtd"><svg xmlns="http://www.w3.org/2000/svg" xmlns:xlink="http://www.w3.org/1999/xlink" version="1.1" width="24" height="24" viewBox="0 0 24 24"><path d="M18,1C20.76,1 23,3.24 23,6C23,8.5 18,14 18.25,17C18.25,17.14 18.14,17.25 18,17.25C17.86,17.25 17.75,17.14 17.75,17C18,14 13,8.5 13,6C13,3.24 15.24,1 18,1M18,4C16.9,4 16,4.9 16,6C16,7.1 16.9,8 18,8C19.1,8 20,7.1 20,6C20,4.9 19.1,4 18,4M4,3H12.67C12.1,3.94 11.77,5.05 11.77,6.23C11.77,7.21 12.4,8.58 13.25,10.11L2.03,21.34L2,21V5C2,3.9 2.9,3 4,3M16.53,15.87L14.13,13.5L14.82,12.79C15.43,13.82 16.03,14.87 16.53,15.87M19.41,23H4.61L12,15.6L19.41,23M22,11.41V21L21.97,21.32L18.61,17.95C19.23,15.97 20.71,13.6 22,11.41M6.69,12.5C5.63,12.5 4.96,12 4.96,11.32C4.96,10.63 5.58,10.4 5.8,10.32C6.21,10.19 6.75,10.17 6.84,10.17L7.06,10.18C7.81,10.71 8.13,10.95 8.13,11.45C8.13,12 7.55,12.5 6.69,12.5M5.53,6.8C5.53,6.1 5.95,5.79 6.38,5.79C7.22,5.79 7.65,6.88 7.65,7.54C7.65,8.35 7,8.5 6.74,8.5C5.96,8.5 5.53,7.54 5.53,6.8M7.95,9.69L7.61,9.42C7.5,9.33 7.35,9.21 7.35,9C7.35,8.74 7.5,8.57 7.66,8.46C8.07,8.14 8.47,7.8 8.47,7.09C8.47,6.44 8.07,6.06 7.83,5.85H8.38L8.78,5.45H6.8C5.42,5.45 4.72,6.31 4.72,7.27C4.72,8 5.28,8.79 6.29,8.79H6.54L6.43,9.2C6.43,9.5 6.57,9.66 6.73,9.84C6.28,9.86 5.46,9.97 4.85,10.34C4.26,10.69 4.12,11.18 4.12,11.53C4.12,12.26 4.78,12.95 6.2,12.95C7.9,12.95 8.74,12 8.74,11.09C8.74,10.41 8.39,10.06 7.95,9.69Z" /></svg>
